flaticon/game/queen.svg

<svg xmlns="http://www.w3.org/2000/svg" width="32" height="32" viewBox="0 0 24 24">
    <path d="M12 4C13.101562 4 14 3.101562 14 2 14 .898438 13.101562 0 12 0 10.898438 0 10 .898438 10 2 10 3.101562 10.898438 4 12 4zM12 .800781C12.660156.800781 13.199219 1.339844 13.199219 2 13.199219 2.660156 12.660156 3.199219 12 3.199219 11.339844 3.199219 10.800781 2.660156 10.800781 2 10.800781 1.339844 11.339844.800781 12 .800781zM17.601562 21.199219L17.601562 20.460938C17.601562 19.554688 16.871094 18.820312 15.964844 18.804688L15.835938 17.386719 15.238281 10.800781 16 10.800781C16.773438 10.800781 17.398438 10.171875 17.398438 9.398438 17.398438 8.628906 16.773438 8 16 8L15.40625 8 16.683594 5.015625 14.523438 5.554688 13.121094 4.15625 12 6.023438 10.878906 4.15625 9.476562 5.554688 7.316406 5.015625 8.59375 8 8 8C7.226562 8 6.601562 8.628906 6.601562 9.398438 6.601562 10.171875 7.226562 10.800781 8 10.800781L8.761719 10.800781 8.164062 17.386719 8.035156 18.804688C7.128906 18.820312 6.398438 19.554688 6.398438 20.460938L6.398438 21.199219 5.601562 21.199219 5.601562 24 18.398438 24 18.398438 21.199219zM14.980469 16.800781L9.019531 16.800781 9.082031 16.132812 9.128906 15.601562 14.871094 15.601562 14.917969 16.132812zM8.683594 6.179688L9.71875 6.4375 10.71875 5.445312 12 7.578125 13.28125 5.445312 14.28125 6.4375 15.316406 6.179688 14.535156 8 9.464844 8zM8 10C7.667969 10 7.398438 9.730469 7.398438 9.398438 7.398438 9.070312 7.667969 8.800781 8 8.800781L16 8.800781C16.332031 8.800781 16.601562 9.070312 16.601562 9.398438 16.601562 9.730469 16.332031 10 16 10zM14.433594 10.800781L14.796875 14.800781 9.203125 14.800781 9.566406 10.800781zM15.054688 17.601562L15.164062 18.800781 8.839844 18.800781 8.949219 17.601562zM7.199219 20.460938C7.199219 19.988281 7.585938 19.601562 8.0625 19.601562L15.9375 19.601562C16.414062 19.601562 16.800781 19.988281 16.800781 20.460938L16.800781 21.199219 7.199219 21.199219zM17.601562 23.199219L6.398438 23.199219 6.398438 22 17.601562 22zM17.601562 23.199219"/>
</svg>

<svg xmlns="http://www.w3.org/2000/svg" width="32" height="32" viewBox="0 0 24 24">
    <path d="M12 4c1.102 0 2-.898 2-2 0-1.102-.898-2-2-2-1.102 0-2 .898-2 2 0 1.102.898 2 2 2zm0-3.2c.66 0 1.2.54 1.2 1.2 0 .66-.54 1.2-1.2 1.2-.66 0-1.2-.54-1.2-1.2 0-.66.54-1.2 1.2-1.2zm0 0M17.602 21.2v-.74c0-.905-.73-1.64-1.637-1.655l-.13-1.418-.597-6.586H16A1.4 1.4 0 0 0 16 8h-.594l1.278-2.984-2.16.539-1.403-1.399L12 6.023l-1.121-1.867-1.402 1.399-2.16-.54L8.593 8H8a1.4 1.4 0 0 0 0 2.8h.762l-.598 6.587-.129 1.418a1.66 1.66 0 0 0-1.637 1.656v.738h-.796V24h12.796v-2.8zm-2.622-4.4H9.02l.062-.667.047-.531h5.742l.047.53zM8.684 6.18l1.035.258 1-.993L12 7.578l1.281-2.133 1 .992 1.035-.257-.78 1.82H9.464zM8 10a.602.602 0 0 1-.602-.602c0-.328.27-.597.602-.597h8c.332 0 .602.27.602.597 0 .332-.27.602-.602.602zm6.434.8l.363 4H9.203l.363-4zm.62 6.802l.11 1.199H8.84l.11-1.2zM7.2 20.46c0-.473.387-.86.864-.86h7.874c.477 0 .864.387.864.86v.738H7.199zm10.403 2.738H6.398V22h11.204zm0 0"/>
</svg>
